X: 29309
T: New Way To Miltown, The
R: jig
M: 6/8
K: Dmajor
|:F2D F2A|AGF E2G|F2D F2A|GED D2E|
F2D F2A|AGF E2A|ded dAB|1 AFD DEG:|2 AFD D3||
|:Ade dd2|BAG FE2|Ade ddA|BAF DD2|
Ade dd2|BAB cd2|BAG Fdc|dAF DD2:|

